static/assets/images/networks/gnosis-mono.svg

<svg width="256" height="256" viewBox="0 0 256 256" fill="none" xmlns="http://www.w3.org/2000/svg">
<path d="M75.3663 145.685C83.0084 145.685 90.0693 143.139 95.7524 138.731L49.1033 92.0929C44.5414 97.9041 42.0862 105.091 42.1393 112.479C42.0424 130.799 56.9392 145.69 75.3609 145.69L75.3663 145.685ZM214.146 112.371C214.146 104.729 211.6 97.6792 207.187 91.996L160.538 138.629C166.351 143.187 173.537 145.64 180.924 145.588C199.249 145.685 214.146 130.793 214.146 112.377V112.371Z" fill="black"/>
<path d="M237.669 61.7236L216.987 82.3949C224.098 90.8402 227.987 101.531 227.966 112.571C227.966 138.532 206.897 159.596 180.924 159.596C169.456 159.596 158.967 155.485 150.732 148.623L128.097 171.253L105.456 148.623C97.0061 155.733 86.3124 159.622 75.2695 159.602C49.2971 159.602 28.2275 138.532 28.2275 112.571C28.2275 101.107 32.3445 90.6237 39.2063 82.3949L18.5241 61.7236C6.37601 81.7113 -0.0329771 104.659 0.000127601 128.048C0.000127601 198.786 57.332 256 128 256C198.662 256 255.994 198.684 255.994 128.048C256.217 104.66 249.867 81.68 237.669 61.7236Z" fill="black"/>
<path d="M220.712 39.6798C208.775 27.1251 194.408 17.1324 178.484 10.3105C162.561 3.48868 145.415 -0.0194012 128.091 8.07001e-05C91.6354 8.07001e-05 58.8066 15.2843 35.4767 39.6798C32.3165 43.0377 29.3086 46.5358 26.4622 50.1635L128 151.664L229.532 50.0667C226.868 46.3788 223.919 42.9059 220.712 39.6798ZM128.091 16.6567C158.089 16.6567 185.924 28.2167 206.8 49.2809L128.091 127.952L49.3939 49.2809C70.3667 28.2167 98.1043 16.6567 128.097 16.6567H128.091Z" fill="black"/>
</svg>

<svg xmlns="http://www.w3.org/2000/svg" fill="none" viewBox="0 0 256 256"><path fill="#000" d="M75.366 145.685c7.642 0 14.703-2.546 20.386-6.954L49.103 92.093a32.63 32.63 0 0 0-6.964 20.386c-.097 18.32 14.8 33.211 33.222 33.211zm138.78-33.314c0-7.642-2.546-14.692-6.959-20.375l-46.649 46.633a32.67 32.67 0 0 0 20.386 6.959c18.325.097 33.222-14.795 33.222-33.211z"/><path fill="#000" d="m237.669 61.724-20.682 20.67a46.7 46.7 0 0 1 10.979 30.177c0 25.961-21.069 47.025-47.042 47.025-11.468 0-21.957-4.111-30.192-10.973l-22.635 22.63-22.641-22.63a46.75 46.75 0 0 1-30.187 10.979c-25.972 0-47.042-21.07-47.042-47.031 0-11.464 4.117-21.947 10.98-30.176L18.523 61.724A127.36 127.36 0 0 0 0 128.048C0 198.786 57.332 256 128 256c70.662 0 127.994-57.316 127.994-127.952a124.9 124.9 0 0 0-18.325-66.324"/><path fill="#000" d="M220.712 39.68A127.6 127.6 0 0 0 128.091 0C91.635 0 58.807 15.284 35.477 39.68a154 154 0 0 0-9.015 10.484L128 151.664 229.532 50.067a87 87 0 0 0-8.82-10.387m-92.621-23.023c29.998 0 57.833 11.56 78.709 32.624l-78.709 78.671-78.697-78.671c20.973-21.064 48.71-32.624 78.703-32.624z"/></svg>
